packages/core/src/svgs/tokens/mono/ENS.svg

<svg width="24" height="24" viewBox="0 0 24 24" fill="none" xmlns="http://www.w3.org/2000/svg">
<path d="M5.38875 10.0888C5.58875 10.5166 6.07209 11.35 6.07209 11.35L11.6832 2L6.21098 5.85556C5.88319 6.07779 5.61653 6.37223 5.4332 6.71668C5.18338 7.24256 5.05053 7.81636 5.04382 8.39852C5.0371 8.98069 5.15668 9.55736 5.39431 10.0888H5.38875ZM3.17208 13.1666C3.23316 14.059 3.48257 14.9284 3.9039 15.7175C4.32523 16.5064 4.90892 17.1973 5.61653 17.7445L11.6776 22C11.6776 22 7.89431 16.5001 4.69986 11.0167C4.37551 10.4378 4.15727 9.80573 4.05542 9.15001C4.01096 8.85352 4.01096 8.55206 4.05542 8.25557L3.81097 8.7278C3.48875 9.39446 3.26653 10.1056 3.16097 10.8389C3.0943 11.6167 3.10541 12.3944 3.17764 13.1722L3.17208 13.1666ZM18.611 13.9111C18.3969 13.4835 18.169 13.0629 17.9276 12.6501L12.3221 22L17.7943 18.15C18.1166 17.9278 18.3832 17.6333 18.5721 17.2833C18.821 16.7571 18.953 16.1831 18.9587 15.601C18.9645 15.0188 18.8439 14.4422 18.6054 13.9111H18.611ZM20.8277 10.8333C20.7666 9.94094 20.5172 9.07163 20.0958 8.2826C19.6745 7.49355 19.0908 6.80272 18.3832 6.25556L12.3221 2C12.3221 2 16.1054 7.50001 19.2999 12.9833C19.6221 13.5611 19.8387 14.1945 19.9388 14.85C19.9833 15.1444 19.9833 15.4501 19.9388 15.7445L20.1832 15.2722C20.511 14.6055 20.7276 13.8945 20.8388 13.1611C20.9055 12.3833 20.8943 11.6055 20.8221 10.8277L20.8277 10.8333Z" fill="white"/>
</svg>

<svg xmlns="http://www.w3.org/2000/svg" width="24" height="24" fill="none" viewBox="0 0 24 24">
    <path fill="#fff" d="M5.389 10.089c.2.428.683 1.261.683 1.261L11.683 2 6.211 5.856a2.4 2.4 0 0 0-.778.86 4.03 4.03 0 0 0-.039 3.373zm-2.217 3.078a6.33 6.33 0 0 0 2.445 4.577L11.677 22S7.895 16.5 4.7 11.017a5.6 5.6 0 0 1-.645-1.867 3 3 0 0 1 0-.894l-.244.472a7.2 7.2 0 0 0-.65 2.11c-.067.779-.056 1.556.017 2.334zm15.439.744a22 22 0 0 0-.683-1.26L12.322 22l5.472-3.85c.323-.222.59-.517.778-.867a4.03 4.03 0 0 0 .033-3.372zm2.217-3.078a6.33 6.33 0 0 0-2.445-4.577L12.323 2s3.782 5.5 6.977 10.983a5.6 5.6 0 0 1 .639 1.867c.044.294.044.6 0 .895l.244-.473a7.2 7.2 0 0 0 .656-2.11 13 13 0 0 0-.017-2.334z"/>
</svg>
